X: 1
T: String Quartet in D Major opus 50 no 6 mvt 2
C: Franz Joseph Haydn
%%abc-version 2.0
%%abcx-abcm2ps-target-version 5.9.1 (29 Sep 2008)
%%abc-creator hum2abc beta
%%abcx-conversion-date 2021/02/14 14:38:29
%%abc-copyright Copyright (c) 1994, 2000 Center for Computer Assisted Research in the Humanities
%%abc-edited-by Frances Bennion
%%abcx-initial-encoding-date 1997/04/15
%%gracespace 0 6 6
%%humdrum-veritas 3255229901
%%humdrum-veritas-data 1265803223
%%linebreak <none>
%%barnumbers 0
L: 1/16
M: 6/8
N: Derived from op50n6-02.krn
Q: "Poco adagio"
%%staves [1 2 3 4]
V: 1
V: 2
V: 3 clef=alto
V: 4 clef=bass
K: F
[V:1]z8 z2D3/F/ [I:setbarnb1]|
[V:2]z8 z2z2 |
[V:3]z8 z2z2 |
[V:4]z8 z2z2 |
[V:1]A2A2A2 A2>B2A2 |
[V:2]A,4^C2 D4F2 |
[V:3]F,4G,2 A,4A,2 |
[V:4]D,4E,2 F,4D,2 |
[V:1]A2A2=B>^c A2z2^C3/E/ |
[V:2]E2^C2D2 C2z4 |
[V:3]A,2E2^G2 A2z4 |
[V:4]^C,2A,,2E,,2 A,,2z4 |
[V:1]G2G2G2 G2>A2G2 |
[V:2]E4D2 ^C6 |
[V:3]^C2A,2B,2 B,6 |
[V:4]A,,2^C,2D,2 E,6 |
[V:1]F2E2E>F D2z2d3/f/ |
[V:2]D4^C2 D2z4 |
[V:3]A,2B,2G,2 F,2z4 |
[V:4]F,2G,2A,2 D,2z4 |
[V:1]a2a2a2 a3=b/^c'/d'/e'/f'/d'/ |
[V:2]F2A2^c2 d4F2 |
[V:3]A2F2G2 A4A2 |
[V:4]D4E2 F4D2 |
[V:1]^c'2zc'/d'/e'/f'/g'/e'/ d'2zd'/e'/f'/g'/a'/f'/ |
[V:2]G2z4 A2z4 |
[V:3]A2z4 d2z4 |
[V:4]E2z4 F2z4 |
[V:1]e'2e'2e'2 e'2>f'2d'2 |
[V:2]d2d2d2 d6 |
[V:3]B2B2B2 =B6 |
[V:4]G6 ^G6 |
[V:1]a'12- |
[V:2]^c2zc/d/e/f/g/e/ f2zf/g/a/g/a/f/ |
[V:3]A2zA/=B/^c/d/e/c/ d2zd/e/f/e/f/d/ |
[V:4]A4z2 A,4z2 |
[V:1]a'12- |
[V:2]e2a2g2 f2z2f2 |
[V:3]^c2z2e2 d2z2d2 |
[V:4]A,2zA,,/=B,,/^C,/D,/E,/C,/ D,/A,,/F,/D,/A,/F,/D/^C/D/A,/F,/D,/ |
[V:1]a'2z2A,2 A,2z2f3/a/ |
[V:2]e2z2A,2 A,2z4 |
[V:3]^c2z2A,2 A,2z4 |
[V:4]A,,2z2A,,2 A,,2z4 |
[V:1]c'2c'2c'2 c'2>d'2c'2 |
[V:2]A,2A,/C/E/F/C/F/A/c/ c/B/B/A/A/G/G/A/B/A/B/G/ |
[V:3][A,4F4]A,2 B,4G,2 |
[V:4]F,,4F,2 E,4E,2 |
[V:1]z2c'2c'2 c'2>d'2c'2 |
[V:2]A2A,/C/F/A/C/F/A/c/ c/B/B/A/A/G/G/A/B/A/B/G/ |
[V:3]F,2F,/A,/C/F/A,/C/F/A/ A/G/G/F/F/E/E/F/G/F/G/E/ |
[V:4]F,4F,2 C,6 |
[V:1]z2c'2c'2 c'2b>ag3/f/ |
[V:2]A2A/c/e/f/c/f/a/c'/ d4d2 |
[V:3]F4F2 F4D2 |
[V:4]F,4A,2 B,4B,2 |
[V:1]e>dc>BA>G F2B2B2 |
[V:2]G4E2 F4F2 |
[V:3]C4C2 D4D2 |
[V:4]C4C2 D4D2 |
[V:1]B4A2 GA//G//^F//G//d2d2 |
[V:2]E6 DBG2F2 |
[V:3]C6 B,6 |
[V:4]C6 B,6 |
[V:1]d6- d/c/f/e/g/f/a/g/b/a/d'/c'/ |
[V:2]F/E/F/E/F/E/F/E/G/E/G/E/ F2z2F2 |
[V:3]G,4>A,4 z2F2 |
[V:4]B,4>A,4 z2A,2 |
[V:1]b/a/c'/b/a/g/b/a/g/f/a/g/ f/e/g/f/g/f/e/f/f/_e/d/e/ |
[V:2]F2z2F2 F2z2F2 |
[V:3]F2z2F2 F2z2C2 |
[V:4]A,2z2A,2 A,2z2A,,2 |
[V:1]_e/d/^c/d/c/d/c/d/d/=c/=B/c/ c/_B/A/B/A/B/A/B/B/A/^G/A/ |
[V:2]F8 G2C2 |
[V:3]D2F2_E2 D2C2C2 |
[V:4]B,,4C,2 D,2E,2F,2 |
[V:1]A/G/^F/G/F/G/F/G/D/d/B/G/ G/=F/E/F/E/F/E/F/D/_A/F/D/ |
[V:2]D6 _A6 |
[V:3]D12 |
[V:4]B,,6 =B,,6 |
[V:1]C/A/F/C/c/A/F/f/A/a/f/c/ c'2zc'c'c' |
[V:2]A2z2A2 A2zaaa |
[V:3]F2z2F2 F2zFFF |
[V:4]C,2z2C,2 C,,/F,,/A,,/C,/F,/A,/C/A,/F,/C,/A,,/F,,/ |
[V:1]c'2zd'e'f' g6 |
[V:2]a2z4 e6 |
[V:3]F2z4 B/A/G/F/E/D/C/B,/A,/G,/A,/B,/ |
[V:4]C,,2z4 C,6 |
[V:1]f12- |
[V:2]f2z2c2 c2>B2A2 |
[V:3]A,2z2_E2 E2>D2^C2 |
[V:4]F,,/A,,/C,/F,/A,/F,/C,/A,,/F,,/A,,/C,/F,/ F,,2z4 |
[V:1]f12- |
[V:2]B2z2B2 B2>A2^G2 |
[V:3]D2z2D2 D2>C2=B,2 |
[V:4]F,,/B,,/D,/F,/B,/F,/D,/B,,/F,,/B,,/D,/F,/ F,,2z4 |
[V:1]f4c2 c2>=B2_BG |
[V:2]A2z2A2 E2z2E2 |
[V:3]C2z2C2 B,2z2B,2 |
[V:4]F,,/A,,/C,/F,/A,/F,/C,/A,,/F,,/A,,/C,/F,/ C,,2z2C,,2 |
[V:1]F2z2F2 F2z2_D3/F/ |
[V:2]F2z2C2 C2z2_A,2 |
[V:3]A,2z2A,2 A,2z2F,2 |
[V:4]F,,/A,,/C,/F,/A,/F,/C,/A,,/F,,/A,,/C,/F,/ F,,2z2_D,,2 |
[V:1]_A2A2A2 A2>B2A2 |
[V:2]F2F2F2 _G/_A/G/A/G/A/G/A/G/A/G/A/ |
[V:3]_D,2_D2D2 _E/_G/E/G/E/G/E/G/E/G/E/G/ |
[V:4]_D,,/F,,/_A,,/_D,/F,/D,/A,,/F,,/D,,/F,,/A,,/D,/ C,,6 |
[V:1]z2_A2A2 A2>B2A2 |
[V:2]F2F2F2 _G/_A/G/A/G/A/G/A/G/A/G/A/ |
[V:3]F2F2F2 _E/_G/E/G/E/G/E/G/E/G/E/G/ |
[V:4]_D,,/F,,/_A,,/_D,/F,/D,/A,,/F,,/D,,/F,,/A,,/D,/ C,,6 |
[V:1]z2_d2d2 c2>d2c2 |
[V:2]F/_A/F/A/F/A/F/A/F/A/F/A/ _G/A/G/A/G/A/G/A/G/A/G/A/ |
[V:3]_D/F/D/F/D/F/D/F/D/F/D/F/ _E/_G/E/G/E/G/E/G/E/G/E/G/ |
[V:4]_D,,2z8 z2 |
[V:1]z2_d2d2 c2>d2c2 |
[V:2]F/_A/F/A/F/A/F/A/F/A/F/A/ _G/A/G/A/G/A/G/A/G/A/G/A/ |
[V:3]_D/F/D/F/D/F/D/F/D/F/D/F/ _E/_G/E/G/E/G/E/G/E/G/E/G/ |
[V:4]z12 |
[V:1]z2_d2d2 f2>_g2f2 |
[V:2]F/_A/F/A/F/A/F/A/F/A/F/A/ _d6 |
[V:3]F/_A/F/A/F/A/F/A/F/A/F/A/ F/A/F/A/F/A/F/A/F/A/F/A/ |
[V:4]z12 |
[V:1]_e2e2e2 e2>f2e2 |
[V:2]_d2d2d2 d6 |
[V:3]_G/B/G/B/G/B/G/B/G/B/G/B/ =G/B/G/B/G/B/G/B/G/B/G/B/ |
[V:4]z12 |
[V:1]_e2e2e2 e2z4 |
[V:2]c2c2c2 c2z4 |
[V:3]_A2A2A2 A2z4 |
[V:4]z12 |
[V:1]_E2E2E2 E2z4 |
[V:2]C2C2C2 C2z4 |
[V:3]_A,2A,2A,2 A,2z4 |
[V:4]z12 |
[V:1]_e2e2e2 e2z4 |
[V:2]c2c2c2 c2z4 |
[V:3]_A2A2A2 A2z4 |
[V:4]z12 |
[V:1]_E2E2E2 E2z4 |
[V:2]C2C2C2 C2z4 |
[V:3]_A,2A,2A,2 A,2z4 |
[V:4]z12 |
[V:1]E2E2E2 E4^GE |
[V:2]^G,2G,2G,2 G,6 |
[V:3]=B,2B,2B,2 B,6 |
[V:4]E,,2E,,2E,,2 E,,2E,,2E,,2 |
[V:1]=B2B2B2 B2>^c2B2 |
[V:2]A/=B,/A/B,/A/B,/A/B,/A/B,/A/B,/ A/B,/A/B,/A/B,/A/B,/A/B,/A/B,/ |
[V:3]^F/A/F/A/F/A/F/A/F/A/F/A/ F/A/F/A/F/A/F/A/F/A/F/A/ |
[V:4]^D,,6 ^D,6 |
[V:1]z2=B2B2 B2>^c2B2 |
[V:2]^G/=B,/G/B,/G/B,/G/B,/G/B,/G/B,/ A/B,/A/B,/A/B,/A/B,/A/B,/A/B,/ |
[V:3]E/^G/E/G/E/G/E/G/E/G/E/G/ ^F/A/F/A/F/A/F/A/F/A/F/A/ |
[V:4]E,6 ^D,6 |
[V:1]z2=B2B2 B2>^c2B2 |
[V:2]^G/=B,/G/B,/G/B,/G/B,/G/B,/G/B,/ G/B,/G/B,/G/B,/G/B,/G/B,/G/B,/ |
[V:3]^G2E2E2 F6 |
[V:4]E,6 D,6 |
[V:1]z2d2d2 d2>^c2d2 |
[V:2]^G/^^F/G/F/G/F/G/F/G/F/G/F/ G/F/G/F/G/F/G/F/G/F/G/F/ |
[V:3]F/E/F/E/F/E/F/E/F/E/F/E/ F/E/F/E/F/E/F/E/F/E/F/E/ |
[V:4]=B,,12 |
[V:1]z2f2f2 f2>e2d2 |
[V:2]^G12 |
[V:3]F/E/D/^C/D/C/D/C/D/C/D/C/ D/C/D/C/D/E/F/E/F/E/D/F/ |
[V:4]B,,12 |
[V:1]^c2A2A2 A4G/F/E/D/ |
[V:2]A2E2E2 F/A/F/A/F/A/F/A/G/F/E/D/ |
[V:3]A2^C2C2 D/F/D/F/D/F/D/F/E/D/C/D/ |
[V:4]A,,/^C,/E,/A,/^C/A,/E,/C,/A,,/C,/E,/A,/ A,,4z2 |
[V:1]^C2A2A2 A4G/F/E/D/ |
[V:2]^C2E2E2 F/A/F/A/F/A/F/A/G/F/E/D/ |
[V:3]A,2^C2C2 D/F/D/F/D/F/D/F/E/D/C/D/ |
[V:4]A,,/^C,/E,/A,/^C/A,/E,/C,/A,,/C,/E,/A,/ A,,2z4 |
[V:1]A,2z4 z/A,/B,/=B,/C/^C/D/E/F/^F/G/^G/ |
[V:2]A,2z8 z2 |
[V:3]A,2z8 z2 |
[V:4]A,,/^C,/E,/A,/^C/A,/E,/C,/A,,/C,/E,/A,/ A,,2z4 |
[V:1]A2A2A2 A2>B2A2 |
[V:2]D/A/G/F/E/D/F/D/D/^C/E/C/ D/A,/=B,/C/D/E/F/G/A/F/E/F/ |
[V:3]F,4G,2 A,4F,2 |
[V:4]D,4E,2 F,4D,2 |
[V:1]A2A2=B>^c A2z2^C3/E/ |
[V:2]E/^C/A/E/C/E/C/E/D/E/D/E/ C2z4 |
[V:3]A,2E2^G2 A2z4 |
[V:4]^C,2A,,2E,,2 A,,2z4 |
[V:1]G2G2G2 G2>A2G2 |
[V:2]^C2C2C2 C6 |
[V:3]E2E2E2 E6 |
[V:4]A,,/=B,,/^C,/D,/E,/F,/G,/A,/B,/A,/G,/F,/ E,/F,/E,/D,/C,/D,/C,/_B,,/A,,/G,,/F,,/E,,/ |
[V:1]F2E2E>F D2z2d3/f/ |
[V:2]D4^C2 D2z4 |
[V:3]FDB,2G,2 F,2z4 |
[V:4]D,,/F,,/A,,/D,/G,,/B,,/D,/G,/A,,/^C,/E,/A,/ D,4z2 |
[V:1]a2a2a2 a3=b/^c'/d'/e'/f'/d'/ |
[V:2]F2A2^c2 d4F2 |
[V:3]A2F2G2 A4A2 |
[V:4]D4E2 F4D2 |
[V:1]^c'2zc'/d'/e'/f'/g'/e'/ d'2zd'/e'/f'/g'/a'/f'/ |
[V:2]G2z4 A2z4 |
[V:3]A2z4 d2z4 |
[V:4]E2z4 F2z4 |
[V:1]e'2e'2e'2 e'2>f'2d'2 |
[V:2]d2d2d2 d6 |
[V:3]B2B2B2 =B6 |
[V:4]G6 ^G6 |
[V:1]a'12- |
[V:2]^c2zc/d/e/f/g/e/ f2zf/g/a/g/a/f/ |
[V:3]A2zA/=B/^c/d/e/c/ d2zd/e/f/e/f/d/ |
[V:4]A4z2 A,4z2 |
[V:1]a'12- |
[V:2]e2a2g2 f2z2f2 |
[V:3]^c2z2e2 d2z2d2 |
[V:4]A,2zA,,/=B,,/^C,/D,/E,/C,/ D,/A,,/F,/D,/A,/F,/D/^C/D/A,/F,/D,/ |
[V:1]a'2z2A,2 A,2z2d3/^f/ |
[V:2]e2z2A,2 A,2z4 |
[V:3]^c2z2A,2 A,2z4 |
[V:4]A,,2z2A,,2 A,,2z4 |
[V:1]a2a2a2 a2>=b2a2 |
[V:2]z2A,/^C/D/^F/A,/D/F/A/ A/G/G/F/F/E/E/F/G/F/G/E/ |
[V:3]^F,4^F2 G4E2 |
[V:4]D,,4D,2 ^C,4C,2 |
[V:1]z2a2a2 a2>=b2a2 |
[V:2]^F4^f2 g6 |
[V:3]D4D2 E6 |
[V:4]z2D,/^F,/A,/^C/D/A,/F,/D,/ ^C,/D,/E,/F,/G,/F,/A,/G,/=B,/A,/C/A,/ |
[V:1]z2a2a2 a2g>^fe3/d/ |
[V:2]^f2^F/A/^c/d/A/d/f/a/ =B4B2 |
[V:3]^F4D2 D4=B,2 |
[V:4]D4^F,2 G,4G,2 |
[V:1]^c>=BA>G^F>E D2G2G2 |
[V:2]E4^C2 D4D2 |
[V:3]A,4A,2 =B,4B,2 |
[V:4]A,4A,2 =B,4B,2 |
[V:1]G4^F2 EF//E//^D//E//=B2B2 |
[V:2]^C6 =B,GE2D2 |
[V:3]A,4>G,4 E2E2 |
[V:4]A,6 G,6 |
[V:1]=B6- B/A/d/^c/e/d/^f/e/g/f/=b/a/ |
[V:2]^C4>D4 z2D2 |
[V:3]E4>D4 z2A2 |
[V:4]G,4>^F,4 z2F,2 |
[V:1]d'/^c'/d'/c'/d'/c'/d'/c'/d'/=b/=c'/^a/ b/a/b/a/b/a/b/a/b/^f/g/e/ |
[V:2]D2z2D4 ^D2E2 |
[V:3]A2z2D2 G,2z2G,2 |
[V:4]^F,2z2F,2 G,2z2G,2 |
[V:1]d/A/^f/d/a/f/d'/^c'/d'/a/f/d/ e6 |
[V:2]^F2z2F>d ^c6 |
[V:3]A,2z2A2 G/^F/E/D/^C/=B,/A,/G,/^F,/E,/F,/G,/ |
[V:4]A,2z2A,2 A,,4A,,2 |
[V:1]d12- |
[V:2]d2z2c2 c2>=B2^A2 |
[V:3]^F,2z2A2 A2>G2^F2 |
[V:4]D,,/^F,,/A,,/D,/^F,/D,/A,,/F,,/D,,/F,,/A,,/D,/ D,,2z4 |
[V:1]d12- |
[V:2]=B2z2B2 B2>A2^G2 |
[V:3]G2z2G2 G2>^F2^E2 |
[V:4]D,,/G,,/=B,,/D,/G,/D,/B,,/G,,/D,,/G,,/B,,/D,/ D,,2z4 |
[V:1]d4A2 A2>^G2=GE |
[V:2]A2z2^F2 ^C6 |
[V:3]^F2z2A,2 G,6 |
[V:4]D,,/^F,,/A,,/D,/^F,/D,/A,,/F,,/D,,/F,,/A,,/D,/ A,,2z2A,,2 |
[V:1]D2z2D2 D2z4 |]
[V:2]D2z2A,2 A,2z4 |]
[V:3]^F,2z2F,2 F,2z4 |]
[V:4]D,,/^F,,/A,,/D,/^F,/D,/A,,/F,,/D,,/F,,/A,,/D,/ D,,2z4 |]

